X: 1
T: Evit Farsal's
M: 3/4
L: 1/8
R: waltz
K: Cmaj
|:E2 (3BAG AB|d4 ed |^c2 g2 ^c2|c2 dcBA|
E2 (3BAG AB|d4 ed|^c2 B2 A2|c3 de2:|
f3 ga2|B2 c2 d2|e2 f2 g2|A4 AB|
c2 d2^ d2|g2 (3fgf _e2|d6-|d6|
f3g ^g2|B2 c2 d2|e2 f2 g2|A4 AB|c2 d2 ^d2|
g2 (3fgf _e2|d2 e3d|c4 dc|B2 c2 (3BcB|A6||
